X: 592
T: Plimouth Jigg
M:6/4
L:1/4
S: 8: MCJLSH3 http://www.cpartington.plus.com/links/Walsh.abc
Z: Pete Stewart 2004
N:printed last note is dotted minim-here correcte
B: Walsh "Third Book of the most Celebrated jiggs, Lancashire hornpipes, ..."
K:D
d | faAdfd | B2ge2d | Be2a2f | dBgecA | FAdAaf | d2AD2 ||
A | d>cBA/G/FA | d/c/Bge2d | a3A2d/e/ | fd/e/fge/f/g | af/g/aAdc | d3D2 ||

%%sep 1 1 500
%%sep 1 1 500
